build/images/g5.svg

<svg width="138" height="138" viewBox="0 0 138 138" fill="none" xmlns="http://www.w3.org/2000/svg">
<circle cx="69" cy="69" r="69" fill="#76BD5E"/>
<path d="M70 46.395L69.1392 46.6563L34.7642 58.1733L26.9487 60.75L31.5 62.2075V86.27C29.8582 87.2243 28.75 88.965 28.75 91C28.75 92.4587 29.3294 93.8577 30.3609 94.8891C31.3923 95.9206 32.7913 96.5 34.25 96.5C35.7087 96.5 37.1076 95.9206 38.1391 94.8891C39.1705 93.8577 39.75 92.4587 39.75 91C39.75 88.965 38.6417 87.2243 37 86.27V64.105L42.5 65.9063V80C42.5 82.255 43.875 84.125 45.5085 85.4175C47.142 86.7018 49.1715 87.6093 51.608 88.4233C56.4865 90.0458 62.916 91 70 91C77.084 91 83.5135 90.0485 88.392 88.4205C90.8285 87.6093 92.858 86.7018 94.4915 85.4148C96.125 84.125 97.5 82.255 97.5 80V65.9063L105.236 63.3268L113.051 60.75L105.233 58.1705L70.858 46.6563L70 46.395ZM70 52.1563L95.7812 60.75L70 69.3438L44.2187 60.75L70 52.1563ZM48 67.7983L69.142 74.8438L70 75.1023L70.8607 74.841L92 67.7955V80C92 80.0275 92.011 80.3465 91.1392 81.0313C90.2702 81.7188 88.711 82.585 86.6705 83.267C82.595 84.6228 76.5862 85.5 70 85.5C63.4137 85.5 57.405 84.6255 53.3267 83.2643C51.2917 82.585 49.7297 81.716 48.8607 81.0313C47.9862 80.3438 48 80.0275 48 80V67.7955V67.7983Z" fill="white"/>
</svg>

<svg width="138" height="138" fill="none" xmlns="http://www.w3.org/2000/svg"><circle cx="69" cy="69" r="69" fill="#76BD5E"/><path d="M70 46.395l-.86.261-34.376 11.517-7.815 2.577 4.551 1.458V86.27c-1.642.954-2.75 2.695-2.75 4.73a5.5 5.5 0 1011 0c0-2.035-1.108-3.776-2.75-4.73V64.105l5.5 1.801V80c0 2.255 1.375 4.125 3.008 5.418 1.634 1.284 3.663 2.191 6.1 3.005C56.487 90.046 62.916 91 70 91s13.513-.951 18.392-2.58c2.437-.81 4.466-1.718 6.1-3.005 1.633-1.29 3.008-3.16 3.008-5.415V65.906l7.736-2.58 7.815-2.576-7.818-2.58-34.375-11.514-.858-.261zm0 5.761l25.781 8.594L70 69.344 44.219 60.75 70 52.156zM48 67.798l21.142 7.046.858.258.86-.261L92 67.796V80c0 .028.011.347-.86 1.031-.87.688-2.429 1.554-4.47 2.236C82.596 84.623 76.587 85.5 70 85.5c-6.586 0-12.595-.874-16.673-2.236-2.035-.679-3.597-1.548-4.466-2.233C47.986 80.344 48 80.027 48 80V67.796v.002z" fill="#fff"/></svg>
